pix_core/i/open.svg

<svg preserveAspectRatio="xMinYMid meet" viewBox="0 0 576 512" xmlns="http://www.w3.org/2000/svg"><path d="m88.7 223.8-88.7 152v-279.8c0-35.3 28.7-64 64-64h117.5c17 0 33.3 6.7 45.3 18.7l26.5 26.5c12 12 28.3 18.7 45.3 18.7h117.4c35.3 0 64 28.7 64 64v32h-336c-22.8 0-43.8 12.1-55.3 31.8zm27.6 16.1c5.8-9.9 16.3-15.9 27.7-15.9h400c11.5 0 22 6.1 27.7 16.1s5.7 22.2-.1 32.1l-112 192c-5.7 9.8-16.2 15.8-27.6 15.8h-400c-11.5 0-22-6.1-27.7-16.1s-5.7-22.2.1-32.1l112-192z" fill="#fff"/></svg>

<svg xmlns="http://www.w3.org/2000/svg" viewBox="0 0 576 512" preserveAspectRatio="xMinYMid meet"><!--!Font Awesome Free 6.5.2 by @fontawesome - https://fontawesome.com License - https://fontawesome.com/license/free Copyright 2024 Fonticons, Inc.--><path fill="#fff" d="M88.7 223.8L0 375.8V96C0 60.7 28.7 32 64 32H181.5c17 0 33.3 6.7 45.3 18.7l26.5 26.5c12 12 28.3 18.7 45.3 18.7H416c35.3 0 64 28.7 64 64v32H144c-22.8 0-43.8 12.1-55.3 31.8zm27.6 16.1C122.1 230 132.6 224 144 224H544c11.5 0 22 6.1 27.7 16.1s5.7 22.2-.1 32.1l-112 192C453.9 474 443.4 480 432 480H32c-11.5 0-22-6.1-27.7-16.1s-5.7-22.2 .1-32.1l112-192z"/></svg>
